app/dist/common/images/hakuhodo-dy.svg

<svg height="18" viewBox="0 0 18 18" width="18" xmlns="http://www.w3.org/2000/svg"><path d="m0 0h18v18h-18z" fill="#f0f3fa"/><path d="m7 9.48v2.19c0 .55.22.7.68.7h.65v.63h-3.83v-.62h.57c.46 0 .93-.16.93-.71v-5.34c0-.56-.47-.7-.93-.7h-.57v-.63h3.83v.62h-.65c-.46 0-.68.15-.68.7v2.16h3.98v-2.15c0-.56-.2-.7-.66-.7h-.65v-.63h3.83v.62h-.57c-.47 0-.93.15-.93.7v5.35c0 .55.46.7.93.7h.57v.63h-3.83v-.62h.65c.46 0 .66-.16.66-.71v-2.2h-3.98z" fill="#1a4685"/></svg>

<!-- by TradingView --><svg xmlns="http://www.w3.org/2000/svg" width="18" height="18" viewBox="0 0 18 18"><path fill="#F0F3FA" d="M0 0h18v18H0z"/><path d="M7 9.48v2.19c0 .55.22.7.68.7h.65V13H4.5v-.62h.57c.46 0 .93-.16.93-.71V6.33c0-.56-.47-.7-.93-.7H4.5V5h3.83v.62h-.65c-.46 0-.68.15-.68.7v2.16h3.98V6.33c0-.56-.2-.7-.66-.7h-.65V5h3.83v.62h-.57c-.47 0-.93.15-.93.7v5.35c0 .55.46.7.93.7h.57V13H9.67v-.62h.65c.46 0 .66-.16.66-.71v-2.2H7Z" fill="#1A4685"/></svg>
